icons/desktop/16/svg/screenshot-16.svg

<svg width="16" height="16" viewBox="0 0 16 16" fill="none" xmlns="http://www.w3.org/2000/svg">
<path fill-rule="evenodd" clip-rule="evenodd" d="M8 5.25C9.933 5.25 11.5 6.817 11.5 8.75C11.5 10.683 9.933 12.25 8 12.25C6.067 12.25 4.5 10.683 4.5 8.75C4.5 6.817 6.067 5.25 8 5.25ZM8 6.75C6.89543 6.75 6 7.64543 6 8.75C6 9.85457 6.89543 10.75 8 10.75C9.10457 10.75 10 9.85457 10 8.75C10 7.64543 9.10457 6.75 8 6.75Z" fill="black"/>
<path fill-rule="evenodd" clip-rule="evenodd" d="M8 1C8.63599 1 9.21375 1.05271 9.71973 1.12988L9.94141 1.17285C10.452 1.29366 10.915 1.55679 11.2822 1.93359L12.5156 3.2002C12.8486 3.22795 13.1871 3.25646 13.5303 3.29102C14.9371 3.43064 16 4.62326 16 6.02832V11.9746C16 13.3741 14.9513 14.5653 13.5459 14.7119C11.8584 14.8874 10.0011 15 8 15C6.54303 15 4.93993 14.9409 3.21582 14.7861L2.46973 14.7139C1.07757 14.57 0.000107115 13.4044 0 11.9912V6.01074C0.000129072 4.61293 1.04932 3.43569 2.44727 3.29199L3.10449 3.22852C3.23157 3.21696 3.35951 3.2061 3.48828 3.19531L4.71777 1.93359L4.71875 1.93262C5.14226 1.49949 5.698 1.21897 6.29297 1.12891C6.938 1.03156 7.51595 1 8 1ZM8 2.5C7.58022 2.5 7.07827 2.52675 6.51758 2.61133C6.24056 2.65326 5.9835 2.78459 5.79102 2.98145L4.39746 4.41211C4.27259 4.5545 4.0958 4.65116 3.89355 4.66699C3.45297 4.70149 3.02178 4.74078 2.60059 4.78418C1.97478 4.84854 1.50013 5.37484 1.5 6.01074V11.9912C1.50011 12.6217 1.98247 13.1554 2.62402 13.2217C4.57649 13.4247 6.38125 13.5 8 13.5C9.94487 13.5 11.7501 13.3903 13.3906 13.2197C14.0189 13.154 14.5 12.6189 14.5 11.9746V6.02832C14.5 5.3855 14.0118 4.84574 13.3809 4.7832C12.9509 4.73992 12.5256 4.70369 12.1045 4.66992C11.8936 4.65301 11.7111 4.5475 11.5859 4.39453L10.208 2.98047C10.0379 2.80598 9.82699 2.68652 9.59473 2.63184L9.49414 2.6123C9.0562 2.5455 8.55387 2.5 8 2.5Z" fill="black"/>
</svg>

<!-- This Source Code Form is subject to the terms of the Mozilla Public
   - License, v. 2.0. If a copy of the MPL was not distributed with this
   - file, You can obtain one at http://mozilla.org/MPL/2.0/. -->
<svg xmlns="http://www.w3.org/2000/svg" width="16" height="16" fill="context-fill" fill-opacity="context-fill-opacity" viewBox="0 0 16 16">
    <path fill-rule="evenodd" d="M8 5.25a3.5 3.5 0 1 1 0 7 3.5 3.5 0 0 1 0-7m0 1.5a2 2 0 1 0 0 4 2 2 0 0 0 0-4" clip-rule="evenodd" />
    <path fill-rule="evenodd" d="M8 1c.636 0 1.214.053 1.72.13l.221.043c.511.12.974.384 1.341.76L12.516 3.2q.5.04 1.014.091A2.75 2.75 0 0 1 16 6.028v5.947c0 1.4-1.049 2.59-2.454 2.737a53.6 53.6 0 0 1-10.33.074l-.746-.072A2.744 2.744 0 0 1 0 11.99v-5.98a2.727 2.727 0 0 1 2.447-2.719l.657-.063.384-.034 1.23-1.261v-.001c.424-.434.98-.714 1.575-.804A11.5 11.5 0 0 1 8 1m0 1.5c-.42 0-.922.027-1.482.111a1.3 1.3 0 0 0-.727.37L4.397 4.412a.75.75 0 0 1-.503.255q-.661.052-1.293.117c-.626.065-1.1.59-1.101 1.227v5.98c0 .63.482 1.164 1.124 1.23a52 52 0 0 0 10.767-.001c.628-.066 1.109-.601 1.109-1.245V6.028a1.25 1.25 0 0 0-1.12-1.245q-.644-.064-1.276-.113a.75.75 0 0 1-.518-.275L10.208 2.98a1.25 1.25 0 0 0-.613-.348l-.1-.02A10 10 0 0 0 8 2.5" clip-rule="evenodd" />
</svg>
